X: 29867
T: O'Kanes
R: hornpipe
M: 4/4
K: Gmajor
(3DEF|:(3GFG dG BG (3Bcd|gd (3d^cd BcdB|(3cBc ac bgag|(3fga ef dcBc|
dg (3gfg dBGB|cA A2 CEAG|(3FED cA FDEF|1 AG (3FGA G2 (3DEF:|2 AG (3FGA G2||
ef|:(3fgf dg dBGB|AE E2 cBAG|(3FED FA d^c=cA|GBde fgcA|
BDGB ce e2|dedB GB (3dcB|cdfd cADF|1 AG (3FGA G2 ef:|2 AG (3FGA G2||

